iphone/Maps/Images.xcassets/Interface/Search/Categories/eat.imageset/eat_light.svg

<svg height="28" viewBox="0 0 28 28" width="28" xmlns="http://www.w3.org/2000/svg"><g fill="none" opacity=".898664"><circle cx="14" cy="14" fill="#ec955e" fill-rule="evenodd" r="14"/><path d="m12.5416667 11.1416783v-3.43909997c0-.38802166-.3092717-.70257833-.694995-.70257833h-.0683375c-.3838334 0-.694995.32498667-.694995.70257833v3.43909997h-1.45833337v-3.43909997c0-.38802166-.30927166-.70257833-.694995-.70257833h-.0683375c-.38383333 0-.694995.32498667-.694995.70257833v3.43909997c0 1.6076667 1.45833334 2.8583334 2.84374997 2.8583334l-.189245 6.0559333c-.0162936.5213833.3836584.944055.895755.944055h.1911584c.511 0 .9078883-.41692.88592-.944055l-.2523267-6.0559333c1.4583333 0 3.2083333-1.2506667 2.9166667-2.8583334v-3.43909997c0-.38802166-.3092717-.70257833-.694995-.70257833h-.0683375c-.3838334 0-.694995.32498667-.694995.70257833v3.43909997h-1.4583334zm3.7916666 3.7916667h1.75v5.1975c0 .4800483.3883834.8692017.875.8692017.483245 0 .875-.3890484.875-.8757584v-13.1238333c-2.443 0-3.5583333 1.69866667-3.5 3.0333333v4.9z" fill="#fff"/></g></svg>

<?xml version="1.0" encoding="UTF-8"?>
<svg width="28px" height="28px" viewBox="0 0 28 28" version="1.1" xmlns="http://www.w3.org/2000/svg" xmlns:xlink="http://www.w3.org/1999/xlink">
    <title>eat_light</title>
    <g id="eat_light" stroke="none" fill="none" fill-rule="evenodd">
        <path d="M14,0 C21.7319865,0 28,6.2680135 28,14 C28,21.7319865 21.7319865,28 14,28 C6.2680135,28 0,21.7319865 0,14 C0,6.2680135 6.2680135,0 14,0 Z M19.8333333,7.000455 C17.3903333,7.000455 16.275,8.69912167 16.3333333,10.0337883 L16.3333333,14.9337883 L18.0833333,14.933345 L18.0833333,20.130845 C18.0833333,20.6108933 18.4717167,21.0000467 18.9583333,21.0000467 C19.4415783,21.0000467 19.8333333,20.6109983 19.8333333,20.1242883 L19.8333333,7.000455 Z M8.93001083,7 L8.86167333,7 C8.47784,7 8.16667833,7.32498667 8.16667833,7.70257833 L8.16667833,11.1416783 C8.16667833,12.749345 9.62501167,14.0000117 11.0104283,14.0000117 L10.8211833,20.055945 C10.8048897,20.5773283 11.2048417,21 11.7169383,21 L11.9080967,21 C12.4190967,21 12.815985,20.58308 12.7940167,20.055945 L12.54169,14.0000117 C14.0000233,14.0000117 15.7500233,12.749345 15.4583567,11.1416783 L15.4583567,7.70257833 C15.4583567,7.31455667 15.149085,7 14.7633617,7 L14.6950242,7 C14.3111908,7 14.0000292,7.32498667 14.0000292,7.70257833 L14.0000292,11.1416783 L12.5416958,11.1416783 L12.5416667,7.70257833 C12.5416667,7.31455667 12.232395,7 11.8466717,7 L11.7783342,7 C11.3945008,7 11.0833392,7.32498667 11.0833392,7.70257833 L11.0833392,11.1416783 L9.62500583,11.1416783 L9.62500583,7.70257833 C9.62500583,7.31455667 9.31573417,7 8.93001083,7 Z" id="Shape" fill="#EC955E"></path>
    </g>
</svg>
